assets/dude/Did–Townes.svg

<svg width="225" height="116" viewBox="0 0 225 116" fill="none" xmlns="http://www.w3.org/2000/svg">
<path d="M68.7865 8.71996H65.1464C57.4464 8.71996 58.2864 0.459961 56.8864 0.459961C55.4864 0.459961 56.3264 8.71996 48.6264 8.71996H30.2864C22.5864 8.71996 23.4264 0.459961 22.0264 0.459961C20.6264 0.459961 21.4664 8.71996 13.7664 8.71996H6.06644C5.36645 8.71996 5.08645 8.99996 4.94645 9.41996C4.52645 10.54 0.606445 38.54 0.606445 42.74C0.606445 43.44 1.16645 44 1.86645 44H15.7264C16.4264 44 16.9864 44.56 16.9864 45.26V70.46C16.9864 71.16 16.4264 71.72 15.7264 71.72H1.86645C1.16645 71.72 0.606445 72.28 0.606445 72.98C0.606445 77.18 4.52645 105.18 4.94645 106.3C5.08645 106.72 5.36645 107 6.06644 107H13.7664C21.4664 107 20.6264 115.26 22.0264 115.26C23.4264 115.26 22.5864 107 30.2864 107H48.6264C56.3264 107 55.4864 115.26 56.8864 115.26C58.2864 115.26 57.4464 107 65.1464 107H68.7865C79.2865 107 84.3264 95.8 84.3264 72.98V42.74C84.3264 19.92 79.2865 8.71996 68.7865 8.71996ZM74.2464 60.8C74.2464 66.12 70.4664 70.6 65.5665 71.72H28.3264C27.6264 71.72 27.0664 71.16 27.0664 70.46V45.26C27.0664 44.56 27.6264 44 28.3264 44H65.5665C70.4664 45.12 74.2464 49.6 74.2464 54.92V60.8Z" fill="#FF1C31"/>
<path d="M118.834 44H132.694C133.394 44 133.954 43.44 133.954 42.74C133.954 38.54 130.034 10.54 129.614 9.41996C129.474 8.99996 129.194 8.71996 128.494 8.71996H120.794C113.094 8.71996 113.934 0.459961 112.534 0.459961C111.134 0.459961 111.974 8.71996 104.274 8.71996H96.5743C95.8743 8.71996 95.5943 8.99996 95.4543 9.41996C95.0343 10.54 91.1143 38.54 91.1143 42.74C91.1143 43.44 91.6743 44 92.3743 44H106.234C106.934 44 107.494 44.56 107.494 45.26V70.46C107.494 71.16 106.934 71.72 106.234 71.72H92.3743C91.6743 71.72 91.1143 72.28 91.1143 72.98C91.1143 77.18 95.0343 105.18 95.4543 106.3C95.5943 106.72 95.8743 107 96.5743 107H104.274C111.974 107 111.134 115.26 112.534 115.26C113.934 115.26 113.094 107 120.794 107H128.494C129.194 107 129.474 106.72 129.614 106.3C130.034 105.18 133.954 77.18 133.954 72.98C133.954 72.28 133.394 71.72 132.694 71.72H118.834C118.134 71.72 117.574 71.16 117.574 70.46V45.26C117.574 44.56 118.134 44 118.834 44Z" fill="#FF1C31"/>
<path d="M208.786 8.71996H205.146C197.446 8.71996 198.286 0.459961 196.886 0.459961C195.486 0.459961 196.326 8.71996 188.626 8.71996H170.286C162.586 8.71996 163.426 0.459961 162.026 0.459961C160.626 0.459961 161.466 8.71996 153.766 8.71996H146.066C145.366 8.71996 145.086 8.99996 144.946 9.41996C144.526 10.54 140.606 38.54 140.606 42.74C140.606 43.44 141.166 44 141.866 44H155.726C156.426 44 156.986 44.56 156.986 45.26V70.46C156.986 71.16 156.426 71.72 155.726 71.72H141.866C141.166 71.72 140.606 72.28 140.606 72.98C140.606 77.18 144.526 105.18 144.946 106.3C145.086 106.72 145.366 107 146.066 107H153.766C161.466 107 160.626 115.26 162.026 115.26C163.426 115.26 162.586 107 170.286 107H188.626C196.326 107 195.486 115.26 196.886 115.26C198.286 115.26 197.446 107 205.146 107H208.786C219.286 107 224.326 95.8 224.326 72.98V42.74C224.326 19.92 219.286 8.71996 208.786 8.71996ZM214.246 60.8C214.246 66.12 210.466 70.6 205.566 71.72H168.326C167.626 71.72 167.066 71.16 167.066 70.46V45.26C167.066 44.56 167.626 44 168.326 44H205.566C210.466 45.12 214.246 49.6 214.246 54.92V60.8Z" fill="#FF1C31"/>
</svg>

<svg xmlns="http://www.w3.org/2000/svg" fill="none" viewBox="0 0 225 116"><path fill="#FF1C31" d="M68.787 8.72h-3.64c-7.7 0-6.86-8.26-8.26-8.26-1.4 0-.56 8.26-8.26 8.26h-18.34c-7.7 0-6.86-8.26-8.26-8.26-1.4 0-.56 8.26-8.26 8.26h-7.7c-.7 0-.98.28-1.12.7-.42 1.12-4.34 29.12-4.34 33.32 0 .7.56 1.26 1.26 1.26h13.86c.7 0 1.26.56 1.26 1.26v25.2c0 .7-.56 1.26-1.26 1.26H1.866c-.7 0-1.26.56-1.26 1.26 0 4.2 3.92 32.2 4.34 33.32.14.42.42.7 1.12.7h7.7c7.7 0 6.86 8.26 8.26 8.26 1.4 0 .56-8.26 8.26-8.26h18.34c7.7 0 6.86 8.26 8.26 8.26 1.4 0 .56-8.26 8.26-8.26h3.64c10.5 0 15.54-11.2 15.54-34.02V42.74c0-22.82-5.04-34.02-15.54-34.02zm5.46 52.08c0 5.32-3.78 9.8-8.68 10.92h-37.24c-.7 0-1.26-.56-1.26-1.26v-25.2c0-.7.56-1.26 1.26-1.26h37.24c4.9 1.12 8.68 5.6 8.68 10.92v5.88zM118.834 44h13.86c.7 0 1.26-.56 1.26-1.26 0-4.2-3.92-32.2-4.34-33.32-.14-.42-.42-.7-1.12-.7h-7.7c-7.7 0-6.86-8.26-8.26-8.26-1.4 0-.56 8.26-8.26 8.26h-7.7c-.7 0-.98.28-1.12.7-.42 1.12-4.34 29.12-4.34 33.32 0 .7.56 1.26 1.26 1.26h13.86c.7 0 1.26.56 1.26 1.26v25.2c0 .7-.56 1.26-1.26 1.26h-13.86c-.7 0-1.26.56-1.26 1.26 0 4.2 3.92 32.2 4.34 33.32.14.42.42.7 1.12.7h7.7c7.7 0 6.86 8.26 8.26 8.26 1.4 0 .56-8.26 8.26-8.26h7.7c.7 0 .98-.28 1.12-.7.42-1.12 4.34-29.12 4.34-33.32 0-.7-.56-1.26-1.26-1.26h-13.86c-.7 0-1.26-.56-1.26-1.26v-25.2c0-.7.56-1.26 1.26-1.26zM208.786 8.72h-3.64c-7.7 0-6.86-8.26-8.26-8.26-1.4 0-.56 8.26-8.26 8.26h-18.34c-7.7 0-6.86-8.26-8.26-8.26-1.4 0-.56 8.26-8.26 8.26h-7.7c-.7 0-.98.28-1.12.7-.42 1.12-4.34 29.12-4.34 33.32 0 .7.56 1.26 1.26 1.26h13.86c.7 0 1.26.56 1.26 1.26v25.2c0 .7-.56 1.26-1.26 1.26h-13.86c-.7 0-1.26.56-1.26 1.26 0 4.2 3.92 32.2 4.34 33.32.14.42.42.7 1.12.7h7.7c7.7 0 6.86 8.26 8.26 8.26 1.4 0 .56-8.26 8.26-8.26h18.34c7.7 0 6.86 8.26 8.26 8.26 1.4 0 .56-8.26 8.26-8.26h3.64c10.5 0 15.54-11.2 15.54-34.02V42.74c0-22.82-5.04-34.02-15.54-34.02zm5.46 52.08c0 5.32-3.78 9.8-8.68 10.92h-37.24c-.7 0-1.26-.56-1.26-1.26v-25.2c0-.7.56-1.26 1.26-1.26h37.24c4.9 1.12 8.68 5.6 8.68 10.92v5.88z"/></svg>
